src/assets/compendia/icons/tokens-core/faction-borg-rank-8-token.svg

<svg xmlns="http://www.w3.org/2000/svg" xml:space="preserve" style="fill-rule:evenodd;clip-rule:evenodd;stroke-linecap:round;stroke-miterlimit:1.5" viewBox="0 0 256 256"><path d="M0 0h256v256H0z" style="fill:none"/><g><circle cx="128" cy="128" r="128"/><path d="M128 0c70.645 0 128 57.355 128 128s-57.355 128-128 128S0 198.645 0 128 57.355 0 128 0m0 8C61.77 8 8 61.77 8 128s53.77 120 120 120 120-53.77 120-120S194.23 8 128 8" style="fill:#f2200d"/><path d="M1830.03 40.495c-.21-.376-.31-.828-.31-1.356q0-.516.15-.96t.39-.708c.17-.176.35-.264.55-.264s.38.088.55.264.3.412.4.708c.09.296.14.616.14.96 0 .528-.1.98-.31 1.356q.03-.18.03-.372c0-.312-.06-.588-.19-.828-.16-.288-.36-.432-.62-.432s-.46.144-.63.432a1.83 1.83 0 0 0-.15 1.2m-.36.216q-.645-.612-1.02-1.8c-.27-.816-.4-1.728-.4-2.736q0-1.812.99-3.492c-.12.384-.19.832-.23 1.344q-.09 1.308.24 2.004.255.576.84.744a1.8 1.8 0 0 0-.48.588c-.25.456-.37.994-.37 1.614s.12 1.158.37 1.614zm2.28 0 .06-.12c.25-.456.37-.996.37-1.62 0-.272-.02-.528-.07-.768.29-.76.43-1.64.43-2.64q0-2.472-2.13-4.692l.2-.204c1.7 1.736 2.56 3.572 2.56 5.508 0 1.008-.14 1.92-.4 2.736q-.375 1.188-1.02 1.8m.16-3.168c-.02-.04-.05-.1-.1-.18a2.2 2.2 0 0 0-.34-.468 7.3 7.3 0 0 0 .17-1.656c0-1.368-.53-2.68-1.61-3.936l.05-.048q.06-.084.09-.12c1.33 1.384 2 2.84 2 4.368 0 .744-.09 1.424-.26 2.04m-.78-.888a1.3 1.3 0 0 0-.51-.132c.13-.496.19-1.024.19-1.584q0-1.62-1.2-3.108l.05-.072q.09-.132.15-.192 1.5 1.704 1.5 3.54c0 .56-.07 1.076-.18 1.548m-.52 4.548q-.225 0-.39-.294c-.11-.196-.16-.43-.16-.702s.05-.506.16-.702q.165-.294.39-.294t.39.294c.11.196.16.43.16.702s-.05.506-.16.702q-.165.294-.39.294" style="fill:#f2200d;fill-rule:nonzero" transform="translate(-29412.4 -451.824)scale(16.1352)"/><path d="M1916.84 1455.5c3.71.33 7.44.5 11.16.5s7.45-.17 11.16-.5l-1.68-19.73c-3.15.29-6.32.43-9.48.43s-6.33-.14-9.48-.43z" style="fill:none;stroke:#f2200d;stroke-width:8.66px" transform="matrix(.9375 0 0 .9091 -1679.5 -1075.64)"/><path d="M1894.87 1451.5a124.2 124.2 0 0 0 66.26 0l-4.97-19.12c-9.18 2.53-18.65 3.82-28.16 3.82s-18.97-1.29-28.16-3.82z" style="fill:none;stroke:#f2200d;stroke-width:8.66px" transform="matrix(.9375 0 0 .9091 -1679.5 -1075.64)"/><path d="M1873.9 1443.63c16.95 8.15 35.41 12.37 54.1 12.37s37.15-4.22 54.1-12.37l-8.12-17.94c-14.4 6.92-30.09 10.51-45.98 10.51s-31.58-3.59-45.98-10.51z" style="fill:none;stroke:#f2200d;stroke-width:8.66px" transform="matrix(.9375 0 0 .9091 -1679.5 -1075.64)"/></g></svg>

<?xml version="1.0" encoding="UTF-8" standalone="no"?>
<!DOCTYPE svg PUBLIC "-//W3C//DTD SVG 1.1//EN" "http://www.w3.org/Graphics/SVG/1.1/DTD/svg11.dtd">
<svg width="100%" height="100%" viewBox="0 0 256 256" version="1.1" xmlns="http://www.w3.org/2000/svg" xmlns:xlink="http://www.w3.org/1999/xlink" xml:space="preserve" xmlns:serif="http://www.serif.com/" style="fill-rule:evenodd;clip-rule:evenodd;stroke-linecap:round;stroke-miterlimit:1.5;">
    <g transform="matrix(1,0,0,1,-3600,-3300)">
        <g transform="matrix(1,0,0,1,3600,3300)">
            <rect id="faction-borg-rank-8-token" x="0" y="0" width="256" height="256" style="fill:none;"/>
            <g id="faction-borg-rank-8-token1" serif:id="faction-borg-rank-8-token">
                <circle cx="128" cy="128" r="128"/>
                <path d="M128,0C198.645,0 256,57.355 256,128C256,198.645 198.645,256 128,256C57.355,256 0,198.645 0,128C0,57.355 57.355,0 128,0ZM128,8C61.77,8 8,61.77 8,128C8,194.23 61.77,248 128,248C194.23,248 248,194.23 248,128C248,61.77 194.23,8 128,8Z" style="fill:rgb(242,32,13);"/>
                <g transform="matrix(16.1352,0,0,16.1352,-29412.4,-451.824)">
                    <g id="Borg">
                        <path id="Borg1" serif:id="Borg" d="M1830.03,40.495C1829.82,40.119 1829.72,39.667 1829.72,39.139C1829.72,38.795 1829.77,38.475 1829.87,38.179C1829.97,37.883 1830.1,37.647 1830.26,37.471C1830.43,37.295 1830.61,37.207 1830.81,37.207C1831.01,37.207 1831.19,37.295 1831.36,37.471C1831.53,37.647 1831.66,37.883 1831.76,38.179C1831.85,38.475 1831.9,38.795 1831.9,39.139C1831.9,39.667 1831.8,40.119 1831.59,40.495C1831.61,40.375 1831.62,40.251 1831.62,40.123C1831.62,39.811 1831.56,39.535 1831.43,39.295C1831.27,39.007 1831.07,38.863 1830.81,38.863C1830.55,38.863 1830.35,39.007 1830.18,39.295C1830.06,39.535 1829.99,39.811 1829.99,40.123C1829.99,40.251 1830.01,40.375 1830.03,40.495ZM1829.67,40.711C1829.24,40.303 1828.9,39.703 1828.65,38.911C1828.38,38.095 1828.25,37.183 1828.25,36.175C1828.25,34.967 1828.58,33.803 1829.24,32.683C1829.12,33.067 1829.05,33.515 1829.01,34.027C1828.95,34.899 1829.03,35.567 1829.25,36.031C1829.42,36.415 1829.7,36.663 1830.09,36.775C1829.91,36.911 1829.75,37.107 1829.61,37.363C1829.36,37.819 1829.24,38.357 1829.24,38.977C1829.24,39.597 1829.36,40.135 1829.61,40.591L1829.67,40.711ZM1831.95,40.711C1831.97,40.671 1831.99,40.631 1832.01,40.591C1832.26,40.135 1832.38,39.595 1832.38,38.971C1832.38,38.699 1832.36,38.443 1832.31,38.203C1832.6,37.443 1832.74,36.563 1832.74,35.563C1832.74,33.915 1832.03,32.351 1830.61,30.871L1830.81,30.667C1832.51,32.403 1833.37,34.239 1833.37,36.175C1833.37,37.183 1833.23,38.095 1832.97,38.911C1832.72,39.703 1832.38,40.303 1831.95,40.711ZM1832.11,37.543C1832.09,37.503 1832.06,37.443 1832.01,37.363C1831.9,37.171 1831.79,37.015 1831.67,36.895C1831.79,36.383 1831.84,35.831 1831.84,35.239C1831.84,33.871 1831.31,32.559 1830.23,31.303L1830.28,31.255C1830.32,31.199 1830.35,31.159 1830.37,31.135C1831.7,32.519 1832.37,33.975 1832.37,35.503C1832.37,36.247 1832.28,36.927 1832.11,37.543ZM1831.33,36.655C1831.19,36.583 1831.02,36.539 1830.82,36.523C1830.95,36.027 1831.01,35.499 1831.01,34.939C1831.01,33.859 1830.61,32.823 1829.81,31.831L1829.86,31.759C1829.92,31.671 1829.97,31.607 1830.01,31.567C1831.01,32.703 1831.51,33.883 1831.51,35.107C1831.51,35.667 1831.44,36.183 1831.33,36.655ZM1830.81,41.203C1830.66,41.203 1830.53,41.105 1830.42,40.909C1830.31,40.713 1830.26,40.479 1830.26,40.207C1830.26,39.935 1830.31,39.701 1830.42,39.505C1830.53,39.309 1830.66,39.211 1830.81,39.211C1830.96,39.211 1831.09,39.309 1831.2,39.505C1831.31,39.701 1831.36,39.935 1831.36,40.207C1831.36,40.479 1831.31,40.713 1831.2,40.909C1831.09,41.105 1830.96,41.203 1830.81,41.203Z" style="fill:rgb(242,32,13);fill-rule:nonzero;"/>
                    </g>
                </g>
                <g transform="matrix(0.9375,0,0,0.909091,-1679.5,-1075.64)">
                    <path d="M1916.84,1455.5C1920.55,1455.83 1924.28,1456 1928,1456C1931.72,1456 1935.45,1455.83 1939.16,1455.5L1937.48,1435.77C1934.33,1436.06 1931.16,1436.2 1928,1436.2C1924.84,1436.2 1921.67,1436.06 1918.52,1435.77L1916.84,1455.5Z" style="fill:none;stroke:rgb(242,32,13);stroke-width:8.66px;"/>
                </g>
                <g transform="matrix(0.9375,0,0,0.909091,-1679.5,-1075.64)">
                    <path d="M1894.87,1451.5C1905.68,1454.49 1916.81,1456 1928,1456C1939.19,1456 1950.32,1454.49 1961.13,1451.5L1956.16,1432.38C1946.98,1434.91 1937.51,1436.2 1928,1436.2C1918.49,1436.2 1909.03,1434.91 1899.84,1432.38L1894.87,1451.5Z" style="fill:none;stroke:rgb(242,32,13);stroke-width:8.66px;"/>
                </g>
                <g transform="matrix(0.9375,0,0,0.909091,-1679.5,-1075.64)">
                    <path d="M1873.9,1443.63C1890.85,1451.78 1909.31,1456 1928,1456C1946.69,1456 1965.15,1451.78 1982.1,1443.63L1973.98,1425.69C1959.58,1432.61 1943.89,1436.2 1928,1436.2C1912.11,1436.2 1896.42,1432.61 1882.02,1425.69L1873.9,1443.63Z" style="fill:none;stroke:rgb(242,32,13);stroke-width:8.66px;"/>
                </g>
            </g>
        </g>
    </g>
</svg>
